svg/arrow/transfer_3_fill.svg

<?xml version="1.0" encoding="UTF-8"?>
<svg width="24px" height="24px" viewBox="0 0 24 24" version="1.1" xmlns="http://www.w3.org/2000/svg" xmlns:xlink="http://www.w3.org/1999/xlink">
    <title>transfer_3_fill</title>
    <g id="页面-1" stroke="none" stroke-width="1" fill="none" fill-rule="evenodd">
        <g id="Arrow" transform="translate(-816.000000, -50.000000)" fill-rule="nonzero">
            <g id="transfer_3_fill" transform="translate(816.000000, 50.000000)">
                 <path d="M24,0 L24,24 L0,24 L0,0 L24,0 Z M12.5934901,23.257841 L12.5819402,23.2595131 L12.5108777,23.2950439 L12.4918791,23.2987469 L12.4918791,23.2987469 L12.4767152,23.2950439 L12.4056548,23.2595131 C12.3958229,23.2563662 12.3870493,23.2590235 12.3821421,23.2649074 L12.3780323,23.275831 L12.360941,23.7031097 L12.3658947,23.7234994 L12.3769048,23.7357139 L12.4804777,23.8096931 L12.4953491,23.8136134 L12.4953491,23.8136134 L12.5071152,23.8096931 L12.6106902,23.7357139 L12.6232938,23.7196733 L12.6232938,23.7196733 L12.6266527,23.7031097 L12.609561,23.275831 C12.6075724,23.2657013 12.6010112,23.2592993 12.5934901,23.257841 L12.5934901,23.257841 Z M12.8583906,23.1452862 L12.8445485,23.1473072 L12.6598443,23.2396597 L12.6498822,23.2499052 L12.6498822,23.2499052 L12.6471943,23.2611114 L12.6650943,23.6906389 L12.6699349,23.7034178 L12.6699349,23.7034178 L12.678386,23.7104931 L12.8793402,23.8032389 C12.8914285,23.8068999 12.9022333,23.8029875 12.9078286,23.7952264 L12.9118235,23.7811639 L12.8776777,23.1665331 C12.8752882,23.1545897 12.8674102,23.1470016 12.8583906,23.1452862 L12.8583906,23.1452862 Z M12.1430473,23.1473072 C12.1332178,23.1423925 12.1221763,23.1452606 12.1156365,23.1525954 L12.1099173,23.1665331 L12.0757714,23.7811639 C12.0751323,23.7926639 12.0828099,23.8018602 12.0926481,23.8045676 L12.108256,23.8032389 L12.3092106,23.7104931 L12.3186497,23.7024347 L12.3186497,23.7024347 L12.3225043,23.6906389 L12.340401,23.2611114 L12.337245,23.2485176 L12.337245,23.2485176 L12.3277531,23.2396597 L12.1430473,23.1473072 Z" id="MingCute" fill-rule="nonzero"></path>
                <path d="M8.56079,11.89935 C9.14658,12.48515 9.14658,13.43485 8.56079,14.02065 L7.58592,14.99555 L16.0001,14.99555 C16.8285,14.99555 17.5001,15.66715 17.5001,16.49555 C17.5001,17.32395 16.8285,17.99555 16.0001,17.99555 L7.58592,17.99555 L8.56079,18.97045 C9.14658,19.55625 9.14658,20.50595 8.56079,21.09175 C7.97501,21.67755 7.02526,21.67755 6.43947,21.09175 L2.90394,17.55615 C2.31815,16.97045 2.31815,16.02065 2.90394,15.43485 L6.43947,11.89935 C7.02526,11.31355 7.97501,11.31355 8.56079,11.89935 Z M15.4394,2.8993425 C15.9885875,2.35016437 16.857609,2.31584074 17.4467757,2.7963716 L17.5607,2.8993425 L21.0962,6.4348725 C21.6453875,6.98405062 21.6797117,7.85310668 21.1991727,8.44226955 L21.0962,8.5561925 L17.5607,12.0917425 C16.9749,12.6775425 16.0252,12.6775425 15.4394,12.0917425 C14.8902125,11.542555 14.8558883,10.6734456 15.3364273,10.0843503 L15.4394,9.9704425 L16.4142,8.9955325 L8,8.9955325 C7.17157,8.9955325 6.5,8.3239625 6.5,7.4955325 C6.5,6.71583368 7.09488554,6.0750835 7.85553954,6.00239905 L8,5.9955325 L16.4142,5.9955325 L15.4394,5.0206625 C14.8536,4.4348725 14.8536,3.4851225 15.4394,2.8993425 Z" id="形状" fill="#09244B"></path>
            </g>
        </g>
    </g>
</svg>

<svg xmlns="http://www.w3.org/2000/svg" width="24" height="24"><g fill="none" fill-rule="nonzero"><path d="M24 0v24H0V0h24ZM12.593 23.258l-.011.002-.071.035-.02.004-.014-.004-.071-.035c-.01-.004-.019-.001-.024.005l-.004.01-.017.428.005.02.01.013.104.074.015.004.012-.004.104-.074.012-.016.004-.017-.017-.427c-.002-.01-.009-.017-.017-.018Zm.265-.113-.013.002-.185.093-.01.01-.003.011.018.43.005.012.008.007.201.093c.012.004.023 0 .029-.008l.004-.014-.034-.614c-.003-.012-.01-.02-.02-.022Zm-.715.002a.023.023 0 0 0-.027.006l-.006.014-.034.614c0 .012.007.02.017.024l.015-.002.201-.093.01-.008.004-.011.017-.43-.003-.012-.01-.01-.184-.092Z"/><path fill="#09244B" d="M8.56 11.9a1.5 1.5 0 0 1 0 2.12l-.974.976H16a1.5 1.5 0 0 1 0 3H7.586l.975.974a1.5 1.5 0 1 1-2.122 2.122l-3.535-3.536a1.5 1.5 0 0 1 0-2.121l3.535-3.536a1.5 1.5 0 0 1 2.122 0Zm6.88-9a1.5 1.5 0 0 1 2.007-.104l.114.103 3.535 3.536a1.5 1.5 0 0 1 .103 2.007l-.103.114-3.535 3.536a1.5 1.5 0 0 1-2.225-2.008l.103-.114.975-.974H8a1.5 1.5 0 0 1-.144-2.994L8 5.996h8.414l-.975-.975a1.5 1.5 0 0 1 0-2.122Z"/></g></svg>
